svg/device/barcode_scan_line.svg

<?xml version="1.0" encoding="UTF-8"?>
<svg width="24px" height="24px" viewBox="0 0 24 24" version="1.1" xmlns="http://www.w3.org/2000/svg" xmlns:xlink="http://www.w3.org/1999/xlink">
    <title>barcode_scan_line</title>
    <g id="Icon" stroke="none" stroke-width="1" fill="none" fill-rule="evenodd">
        <g id="Device" transform="translate(-864.000000, -288.000000)">
            <g id="barcode_scan_line" transform="translate(864.000000, 288.000000)">
                <path d="M24,0 L24,24 L0,24 L0,0 L24,0 Z M12.5935,23.2578 L12.5819,23.2595 L12.5109,23.295 L12.4919,23.2987 L12.4767,23.295 L12.4057,23.2595 C12.3958,23.2564 12.387,23.259 12.3821,23.2649 L12.378,23.2758 L12.3609,23.7031 L12.3659,23.7235 L12.3769,23.7357 L12.4805,23.8097 L12.4953,23.8136 L12.5071,23.8097 L12.6107,23.7357 L12.6233,23.7197 L12.6267,23.7031 L12.6096,23.2758 C12.6076,23.2657 12.601,23.2593 12.5935,23.2578 Z M12.8584,23.1453 L12.8445,23.1473 L12.6598,23.2397 L12.6499,23.2499 L12.6472,23.2611 L12.6651,23.6906 L12.6699,23.7034 L12.6784,23.7105 L12.8793,23.8032 C12.8914,23.8069 12.9022,23.803 12.9078,23.7952 L12.9118,23.7812 L12.8777,23.1665 C12.8753,23.1546 12.8674,23.147 12.8584,23.1453 Z M12.143,23.1473 C12.1332,23.1424 12.1222,23.1453 12.1156,23.1526 L12.1099,23.1665 L12.0758,23.7812 C12.0751,23.7927 12.0828,23.8019 12.0926,23.8046 L12.1083,23.8032 L12.3092,23.7105 L12.3186,23.7024 L12.3225,23.6906 L12.3404,23.2611 L12.3372,23.2485 L12.3278,23.2397 L12.143,23.1473 Z" id="MingCute" fill-rule="nonzero"></path>
                <path d="M3,5 C3,3.89543 3.89543,3 5,3 L7,3 C7.55228,3 8,3.44772 8,4 C8,4.55228 7.55228,5 7,5 L5,5 L5,7 C5,7.55228 4.55228,8 4,8 C3.44772,8 3,7.55228 3,7 L3,5 Z M16,4 C16,3.44772 16.4477,3 17,3 L19,3 C20.1046,3 21,3.89543 21,5 L21,7 C21,7.55228 20.5523,8 20,8 C19.4477,8 19,7.55228 19,7 L19,5 L17,5 C16.4477,5 16,4.55228 16,4 Z M8,9 C8.55228,9 9,9.44772 9,10 C9,9.44772 9.44772,9 10,9 C10.5523,9 11,9.44772 11,10 L11,14 C11,14.5523 10.5523,15 10,15 C9.44772,15 9,14.5523 9,14 C9,14.5523 8.55228,15 8,15 C7.44772,15 7,14.5523 7,14 L7,10 C7,9.44772 7.44772,9 8,9 Z M13,9 C13.5523,9 14,9.44772 14,10 L14,14 C14,14.5523 13.5523,15 13,15 C12.4477,15 12,14.5523 12,14 L12,10 C12,9.44772 12.4477,9 13,9 Z M16.5,9.13378 C16.3529,9.0487 16.1821,9 16,9 C15.4477,9 15,9.44772 15,10 L15,14 C15,14.5523 15.4477,15 16,15 C16.1821,15 16.3529,14.9513 16.5,14.8662 C16.6471,14.9513 16.8179,15 17,15 C17.5523,15 18,14.5523 18,14 L18,10 C18,9.44772 17.5523,9 17,9 C16.8179,9 16.6471,9.0487 16.5,9.13378 Z M4,10 C4.55228,10 5,10.4477 5,11 L5,13 C5,13.5523 4.55228,14 4,14 C3.44772,14 3,13.5523 3,13 L3,11 C3,10.4477 3.44772,10 4,10 Z M20,10 C20.5523,10 21,10.4477 21,11 L21,13 C21,13.5523 20.5523,14 20,14 C19.4477,14 19,13.5523 19,13 L19,11 C19,10.4477 19.4477,10 20,10 Z M4,16 C4.55228,16 5,16.4477 5,17 L5,19 L7,19 C7.55228,19 8,19.4477 8,20 C8,20.5523 7.55228,21 7,21 L5,21 C3.89543,21 3,20.1046 3,19 L3,17 C3,16.4477 3.44772,16 4,16 Z M20,16 C20.5523,16 21,16.4477 21,17 L21,19 C21,20.1046 20.1046,21 19,21 L17,21 C16.4477,21 16,20.5523 16,20 C16,19.4477 16.4477,19 17,19 L19,19 L19,17 C19,16.4477 19.4477,16 20,16 Z" id="形状" fill="#09244B"></path>
            </g>
        </g>
    </g>
</svg>

<svg xmlns="http://www.w3.org/2000/svg" width="24" height="24"><g fill="none" fill-rule="evenodd"><path d="M24 0v24H0V0h24ZM12.594 23.258l-.012.002-.071.035-.02.004-.014-.004-.071-.036c-.01-.003-.019 0-.024.006l-.004.01-.017.428.005.02.01.013.104.074.015.004.012-.004.104-.074.012-.016.004-.017-.017-.427c-.002-.01-.009-.017-.016-.018Zm.264-.113-.014.002-.184.093-.01.01-.003.011.018.43.005.012.008.008.201.092c.012.004.023 0 .029-.008l.004-.014-.034-.614c-.003-.012-.01-.02-.02-.022Zm-.715.002a.023.023 0 0 0-.027.006l-.006.014-.034.614c0 .012.007.02.017.024l.015-.002.201-.093.01-.008.003-.011.018-.43-.003-.012-.01-.01-.184-.092Z"/><path fill="#09244B" d="M3 5a2 2 0 0 1 2-2h2a1 1 0 0 1 0 2H5v2a1 1 0 0 1-2 0V5Zm13-1a1 1 0 0 1 1-1h2a2 2 0 0 1 2 2v2a1 1 0 1 1-2 0V5h-2a1 1 0 0 1-1-1ZM8 9a1 1 0 0 1 1 1 1 1 0 0 1 2 0v4a1 1 0 1 1-2 0 1 1 0 1 1-2 0v-4a1 1 0 0 1 1-1Zm5 0a1 1 0 0 1 1 1v4a1 1 0 1 1-2 0v-4a1 1 0 0 1 1-1Zm3.5.134A1 1 0 0 0 15 10v4a1 1 0 0 0 1.5.866A1 1 0 0 0 18 14v-4a1 1 0 0 0-1.5-.866ZM4 10a1 1 0 0 1 1 1v2a1 1 0 1 1-2 0v-2a1 1 0 0 1 1-1Zm16 0a1 1 0 0 1 1 1v2a1 1 0 1 1-2 0v-2a1 1 0 0 1 1-1ZM4 16a1 1 0 0 1 1 1v2h2a1 1 0 1 1 0 2H5a2 2 0 0 1-2-2v-2a1 1 0 0 1 1-1Zm16 0a1 1 0 0 1 1 1v2a2 2 0 0 1-2 2h-2a1 1 0 1 1 0-2h2v-2a1 1 0 0 1 1-1Z"/></g></svg>
